svgs/regular/key-skeleton.svg

<svg xmlns="http://www.w3.org/2000/svg" viewBox="0 0 512 512"><!-- Font Awesome Pro 6.0.0-alpha2 by @fontawesome - https://fontawesome.com License - https://fontawesome.com/license (Commercial License) --><path d="M416 0H320C266.98 0 224 42.98 224 96V192C224 209.773 229.16 226.209 237.578 240.484L7.031 471.031C-2.344 480.406 -2.344 495.594 7.031 504.969C11.719 509.656 17.844 512 24 512S36.281 509.656 40.969 504.969L83.719 462.219L121.781 500.281C129.562 508.094 139.812 511.969 150.062 511.969S170.562 508.094 178.344 500.281L227.781 450.844C243.375 435.25 243.375 409.875 227.781 394.281L189.719 356.219L271.516 274.422C285.791 282.84 302.227 288 320 288H416C469.02 288 512 245.02 512 192V96C512 42.98 469.02 0 416 0ZM150.062 460.688L117.656 428.281L155.781 390.156L188.187 422.563L150.062 460.688ZM464 192C464 218.467 442.467 240 416 240H320C293.533 240 272 218.467 272 192V96C272 69.533 293.533 48 320 48H416C442.467 48 464 69.533 464 96V192Z"/></svg>

<svg xmlns="http://www.w3.org/2000/svg" viewBox="0 0 512 512"><!--! Font Awesome Pro 6.0.0-alpha3 by @fontawesome - https://fontawesome.com License - https://fontawesome.com/license (Commercial License) --><path d="M416 0h-96c-53.02 0-96 42.98-96 96v96c0 17.77 5.16 34.21 13.58 48.48l-230.5 230.5c-9.375 9.375-9.375 24.56 0 33.94C11.72 509.7 17.84 512 24 512s12.28-2.344 16.97-7.031l42.75-42.75l38.06 38.06c7.781 7.812 18.03 11.69 28.28 11.69s20.5-3.875 28.28-11.69l49.44-49.44c15.59-15.59 15.59-40.97 0-56.56l-38.06-38.06l81.8-81.8C285.8 282.8 302.2 288 320 288h96c53.02 0 96-42.98 96-96V96C512 42.98 469 0 416 0zM150.1 460.7l-32.41-32.41l38.13-38.13l32.41 32.41L150.1 460.7zM464 192c0 26.47-21.53 48-48 48h-96c-26.47 0-48-21.53-48-48V96c0-26.47 21.53-48 48-48h96c26.47 0 48 21.53 48 48V192z"/></svg>
